assets/src/images/icons/ic_acces.svg

<svg width="102" height="106" viewBox="0 0 102 106" fill="none" xmlns="http://www.w3.org/2000/svg">
<g filter="url(#filter0_d)">
<path fill-rule="evenodd" clip-rule="evenodd" d="M66.7999 42.2666C66.7999 40.573 65.4269 39.2 63.7333 39.2H53V33.8334C52.9974 31.7173 51.2827 30.0025 49.1666 30H33.8333C31.7173 30.0025 30.0025 31.7173 30 33.8334V72.1667C30.0025 74.2826 31.7173 75.9974 33.8334 76H49.1667C51.2827 75.9975 52.9974 74.2827 53 72.1667V45.3333H63.7334C65.4269 45.3333 66.7999 43.9603 66.7999 42.2666ZM51.4666 72.1666C51.4666 73.4368 50.4369 74.4666 49.1666 74.4666H33.8333C32.5631 74.4666 31.5333 73.4369 31.5333 72.1666V33.8334C31.5333 32.5631 32.563 31.5334 33.8333 31.5334H49.1666C50.4368 31.5334 51.4666 32.5631 51.4666 33.8334V39.2H46.79C45.71 37.2974 43.6878 36.1251 41.5 36.1334C38.1126 36.1334 35.3666 38.8793 35.3666 42.2667C35.3666 45.6541 38.1126 48.4 41.5 48.4C43.6878 48.4082 45.71 47.236 46.79 45.3333H51.4666V72.1666ZM41.5 45.3333H44.9331C44.063 46.3151 42.8118 46.874 41.5 46.8667C38.9595 46.8667 36.9 44.8072 36.9 42.2667C36.9 39.7262 38.9595 37.6667 41.5 37.6667C42.8119 37.6591 44.0632 38.218 44.9331 39.2001H41.5C39.8063 39.2001 38.4333 40.5731 38.4333 42.2667C38.4333 43.9603 39.8062 45.3333 41.5 45.3333ZM41.5 43.8C40.6531 43.8 39.9666 43.1135 39.9666 42.2666C39.9666 41.4198 40.6531 40.7333 41.5 40.7333H63.7333C64.5802 40.7333 65.2667 41.4198 65.2667 42.2666C65.2667 43.1135 64.5802 43.8 63.7333 43.8H41.5ZM41.5 57.5896C40.3798 57.5896 39.4225 58.3966 39.2331 59.5007C39.0438 60.6048 39.6772 61.6847 40.7333 62.0581V64.4999C40.7333 64.9234 41.0766 65.2666 41.5 65.2666C41.9234 65.2666 42.2666 64.9234 42.2666 64.4999V62.0581C43.3227 61.6847 43.9562 60.6048 43.7668 59.5007C43.5774 58.3967 42.6202 57.5896 41.5 57.5896ZM41.5 60.6666C41.0766 60.6666 40.7333 60.3233 40.7333 59.8999C40.7333 59.4765 41.0766 59.1333 41.5 59.1333C41.9234 59.1333 42.2666 59.4766 42.2666 59.8999C42.2666 60.3234 41.9234 60.6666 41.5 60.6666ZM66.0079 54.4053C66.3057 54.1146 66.7811 54.1146 67.0789 54.4053C69.8397 57.1228 71.3945 60.8346 71.3945 64.7085C71.3945 68.5824 69.8398 72.2941 67.079 75.0116C66.7808 75.3038 66.3037 75.3038 66.0056 75.0116L63.8098 72.8435C63.664 72.6995 63.5819 72.503 63.5819 72.2981C63.5819 72.0932 63.664 71.8967 63.8098 71.7527C65.6973 69.8945 66.7601 67.3567 66.7601 64.7081C66.7601 62.0595 65.6973 59.5217 63.8098 57.6636C63.6642 57.5195 63.5823 57.3232 63.5823 57.1185C63.5823 56.9137 63.6642 56.7174 63.8098 56.5734L66.0079 54.4053ZM65.4198 72.28L66.529 73.3725C70.9753 68.4514 70.9749 60.9633 66.5277 56.0429L65.4198 57.1369C69.25 61.458 69.25 67.9589 65.4198 72.28ZM62.6944 58.7415C62.3957 58.4462 61.9151 58.4462 61.6164 58.7415L59.4207 60.9104C59.2749 61.0544 59.1928 61.2509 59.1928 61.4558C59.1928 61.6608 59.2749 61.8573 59.4207 62.0013C60.1469 62.7149 60.5558 63.6903 60.5558 64.7083C60.5558 65.7264 60.1469 66.7018 59.4207 67.4154C59.2743 67.5594 59.1917 67.756 59.1915 67.9613C59.1922 68.1664 59.275 68.3628 59.4215 68.5064L61.6173 70.6745C61.9159 70.9692 62.3959 70.9692 62.6945 70.6745C64.2929 69.1006 65.1929 66.9512 65.1929 64.7079C65.1929 62.4646 64.2928 60.3154 62.6944 58.7415ZM62.1231 69.0233L61.0085 67.9223C62.4458 66.0208 62.4458 63.3961 61.0085 61.4946H61.01L62.1231 60.393C64.1676 62.9064 64.1676 66.5097 62.1231 69.0233ZM54.5331 64.917C54.5331 63.6468 55.5629 62.617 56.8331 62.617C58.1034 62.617 59.1331 63.6467 59.1331 64.917C59.1331 66.1873 58.1034 67.217 56.8331 67.217C55.5628 67.217 54.5331 66.1872 54.5331 64.917ZM56.0665 64.917C56.0665 65.3405 56.4097 65.6837 56.8331 65.6837C57.2566 65.6837 57.5998 65.3405 57.5998 64.917C57.5998 64.4936 57.2566 64.1504 56.8331 64.1504C56.4097 64.1504 56.0665 64.4936 56.0665 64.917Z" fill="#0EF5FF"/>
</g>
<defs>
<filter id="filter0_d" x="0" y="0" width="101.395" height="106" filterUnits="userSpaceOnUse" color-interpolation-filters="sRGB">
<feFlood flood-opacity="0" result="BackgroundImageFix"/>
<feColorMatrix in="SourceAlpha" type="matrix" values="0 0 0 0 0 0 0 0 0 0 0 0 0 0 0 0 0 0 127 0"/>
<feOffset/>
<feGaussianBlur stdDeviation="15"/>
<feColorMatrix type="matrix" values="0 0 0 0 0.054902 0 0 0 0 0.960784 0 0 0 0 1 0 0 0 0.8 0"/>
<feBlend mode="normal" in2="BackgroundImageFix" result="effect1_dropShadow"/>
<feBlend mode="normal" in="SourceGraphic" in2="effect1_dropShadow" result="shape"/>
</filter>
</defs>
</svg>

<svg width="102" height="106" viewBox="0 0 102 106" fill="none" xmlns="http://www.w3.org/2000/svg"><g filter="url(#filter0_d)"><path fill-rule="evenodd" clip-rule="evenodd" d="M66.8 42.267a3.067 3.067 0 00-3.067-3.067H53v-5.367A3.838 3.838 0 0049.167 30H33.833A3.838 3.838 0 0030 33.833v38.334A3.838 3.838 0 0033.833 76h15.334A3.838 3.838 0 0053 72.167V45.333h10.733a3.067 3.067 0 003.067-3.066zm-15.333 29.9a2.3 2.3 0 01-2.3 2.3H33.833a2.3 2.3 0 01-2.3-2.3V33.833a2.3 2.3 0 012.3-2.3h15.334a2.3 2.3 0 012.3 2.3V39.2H46.79a6.056 6.056 0 00-5.29-3.067 6.133 6.133 0 100 12.267 6.057 6.057 0 005.29-3.067h4.677v26.834zM41.5 45.333h3.433a4.553 4.553 0 01-3.433 1.534 4.6 4.6 0 010-9.2 4.55 4.55 0 013.433 1.533H41.5a3.067 3.067 0 100 6.133zm0-1.533a1.533 1.533 0 110-3.067h22.233a1.533 1.533 0 110 3.067H41.5zm0 13.79a2.3 2.3 0 00-.767 4.468V64.5a.767.767 0 101.534 0v-2.442a2.3 2.3 0 00-.767-4.468zm0 3.077a.767.767 0 110-1.534.767.767 0 010 1.534zm24.508-6.262a.767.767 0 011.07 0 14.457 14.457 0 01.001 20.607.767.767 0 01-1.073 0l-2.196-2.168a.767.767 0 010-1.091 9.885 9.885 0 000-14.09.767.767 0 010-1.09l2.198-2.168zM65.42 72.28l1.109 1.093a12.924 12.924 0 00-.001-17.33l-1.108 1.094a11.415 11.415 0 010 15.143zm-2.726-13.538a.767.767 0 00-1.078 0l-2.195 2.168a.767.767 0 000 1.091 3.795 3.795 0 010 5.414.767.767 0 000 1.091l2.196 2.168a.767.767 0 001.078 0 8.373 8.373 0 000-11.933zm-.57 10.281l-1.116-1.1a5.33 5.33 0 000-6.428h.002l1.113-1.102a6.838 6.838 0 010 8.63zm-7.59-4.106a2.3 2.3 0 114.6 0 2.3 2.3 0 01-4.6 0zm1.532 0a.767.767 0 101.534 0 .767.767 0 00-1.534 0z" fill="#0EF5FF"/></g><defs><filter id="filter0_d" x="0" y="0" width="101.395" height="106" filterUnits="userSpaceOnUse" color-interpolation-filters="sRGB"><feFlood flood-opacity="0" result="BackgroundImageFix"/><feColorMatrix in="SourceAlpha" values="0 0 0 0 0 0 0 0 0 0 0 0 0 0 0 0 0 0 127 0"/><feOffset/><feGaussianBlur stdDeviation="15"/><feColorMatrix values="0 0 0 0 0.054902 0 0 0 0 0.960784 0 0 0 0 1 0 0 0 0.8 0"/><feBlend in2="BackgroundImageFix" result="effect1_dropShadow"/><feBlend in="SourceGraphic" in2="effect1_dropShadow" result="shape"/></filter></defs></svg>
